X: 1027
T:Bailey's Breakdown (A12)
N: page A12
N: heptatonic
R:Reel
M:4/4
L:1/8
K:D
AD|:"D"FADF ABAF|"G"GBDG B2 AG|"D"FAde fdef|"A"gfed cBAG|
"D"FADF ABAF|"G"GBDG B2 AG|"D"FAdf "A"ecAc|\
[1 "D" d[df][df][df] [f2d2] AG:|[2 "D" d[df][df][df] [f2d2] fg|:
"D"afdf "A"g/f/ece|"D"dcdB AFDF|"G"GABG "D"FAdf|"E"edcB "A"A2 fg|
"D"afdf "A"g/f/ece|"D"dcdB AFDF|"G"GBAG "D"FAdf|[1 "A"ecAc "D"d2 fg:|[2 "A"ecAc "D" d4|
